X:760
T:Sporting Nellie
R:reel
S:J\"orgen Fischer
H:See also "Sporting Nell" #899, "Long Strand" #531, #165,
H:"Old Gorman's Reel" #603
Z:id:hn-reel-760
M:C|
L:1/8
K:Dmix
ADED A2dc|ABAG EG~G2|ADED A2dc|(3ABA GE EDD2:|
^cdec d3A|^cdeg gedA|^cdec deed|^cAGE ~F2D2|
^cdec d3A|^cdeg ged2|a2ag eged|^cAGE D4||

